X:321
T:Auld Lang Syne
O:england
M:2/4
L:1/8
S:Armitt MS
K:C major
G2|c>c c>e|d>c d>e|c>c e>g|a2 a/2b/2c'/2|a>e e>c|d>c d>e|c>A A>G|c2:||:a
|g
>e e>c|d>c d>e|g>e e>g|a2 abc'|g>e e>c|d>c d>e|c>A A>G|c2:||
